X:1
T:Denpasar, 10.9.10.9 D
T:Denpasar, 10.9.10.9 D
T:Ira David Sankey, 1896
T:Public Domain Courtesy of the Cyber Hymnal™
C:Ira David Sankey, 1896
Z:Public Domain
Z:Courtesy of the Cyber Hymnal™
%%score ( 1 2 ) ( 3 4 )
L:1/8
Q:1/4=103
M:4/4
K:Ab
V:1 treble 
V:2 treble 
V:3 bass 
V:4 bass 
V:1
 [Ec]2 [CA]2 [CE]2 C2 | [CE]>[CF] [EG]>[EA] [Ec]2 [EB]2 | [Ed]2 [DB]2 [DG]2 E2 | %3
 [EA]>[EG] [EA]>[Ec] [EB]4 | [Ec]2 [CA]2 [CE]2 C2 | [CE]>[CF] [EG]>[EA] [Ec]2 [EB]2 | %6
 [Ed]2 [Ec][EB] [Ee]2 [CA][Fd] | [Ec]2 [DB]2 [CA]4 | [Ec]2 [Ec]2 [=Ec]2 [EG]2 | %9
 [FA]>[FA] [FB]>[FB] [=Ec]2 [Ec]2 | [Ed]2 [Ed]2 [Ed]2 [EB]2 | [Ec]>[Ec] [A=d]>[Ad] [Ge]4 | %12
 [Ec]2 [CA]2 [CE]2 C2 | [CE]>[CF] [EG]>[EA] [Ec]2 [EB]2 | [Ed]2 [Ec][EB] [Ee]2 [CA][Fd] | %15
 [Ec]2 [DB]2 [CA]4 |] %16
V:2
 x6 C2 | x8 | x6 E2 | x8 | x6 C2 | x8 | x8 | x8 | x8 | x8 | x8 | x8 | x6 C2 | x8 | x8 | x8 |] %16
V:3
 [A,,A,]2 [A,,A,]2 [A,,A,]2 [A,,E,]2 | [A,,A,]>[A,,A,] [C,A,]>[C,A,] [E,A,]2 [E,G,]2 | %2
 [E,B,]2 [E,G,]2 [E,B,]2 [D,G,]2 | [C,A,]>[B,,D] [A,,C]>[A,,A,] [E,G,]4 | %4
 [A,,A,]2 [A,,A,]2 [A,,A,]2 [A,,E,]2 | [A,,A,]>[A,,A,] [C,A,]>[C,A,] [E,A,]2 [E,G,]2 | %6
 [E,B,]2 [E,A,][D,G,] [C,A,]2 [F,A,][D,A,] | [E,A,]2 [E,G,]2 [A,,A,]4 | %8
 [A,,A,]2 [A,,A,]2 [C,G,]2 [C,C]2 | [F,C]>[F,A,] [D,A,]>[D,F,] [C,G,]2 [C,G,]2 | %10
 [E,G,]2 [E,G,]2 [E,B,]2 [E,G,]2 | A,>A, [F,B,]>[F,B,] [E,B,]4 | %12
 [A,,A,]2 [A,,A,]2 [A,,A,]2 [A,,E,]2 | [A,,A,]>[A,,A,] [C,A,]>[C,A,] [E,A,]2 [E,G,]2 | %14
 [E,B,]2 [E,A,][D,G,] [C,A,]2 [F,A,][D,A,] | [E,A,]2 [E,G,]2 [A,,A,]4 |] %16
V:4
 x8 | x8 | x8 | x8 | x8 | x8 | x8 | x8 | x8 | x8 | x8 | A,>A, x6 | x8 | x8 | x8 | x8 |] %16

